T: Whiskey Makes You A Lunatic
M: 4/4
L: 1/8
K: Ador
|: e<AA>^G A>Bc<d | e<AA>c B>^AB<d ||: e>ae>g e<dB>d | e<dg>e d>GB<d |2 (3efg (3fga g>fg<a | (3bag (3gfe d>GB<d ||
